icon-themes/breeze_svg/cmd/32/insertmasterpage.svg

<svg viewBox="0 0 32 32" xmlns="http://www.w3.org/2000/svg"><path d="m4 6v12 1l7 7h1 5v-1h-5v-7h-7v-11h22v10h1v-11zm18 11v5h-5v1h5v5h1v-5h5v-1h-5v-5z" fill="#1d99f3"/></svg>

<svg xmlns="http://www.w3.org/2000/svg" viewBox="0 0 32 32">
 <path 
     style="fill:#1d99f3" 
     d="M 4 6 L 4 18 L 4 19 L 11 26 L 12 26 L 17 26 L 17 25 L 12 25 L 12 18 L 5 18 L 5 7 L 27 7 L 27 17 L 28 17 L 28 6 L 4 6 z M 22 17 L 22 22 L 17 22 L 17 23 L 22 23 L 22 28 L 23 28 L 23 23 L 28 23 L 28 22 L 23 22 L 23 17 L 22 17 z "
     />
</svg>
